X:297
T: Chuan gu niang
N: C0745
O: China, Ningxia, Guyuan
S: I, 187]
N: neue Weise. Titel: Man macht ein Boot aus Seide, in das sich
N: ein Maedchen stellt.
R: Wuge, Hanchuan. Zanmei guniang]
M: 2/4
L: 1/16
K: Bb
f2f4cB | BcBGF2F2 | f2f4b2 | cfbgf4
f2fec4 | bcbgf2e2 | f4A3B | c2f2c4
B2Bcf2ff | c4b4 | g3bg2f2 | e2c2B4
g2b4g2 | f2e2ceBc | f4cB_AG | F8
g3fb2gf | e2dcB4
g2b4g2 | f2e2ceBc | f4cB_AG | F8

